web/public/images/3p-logos/storybook.svg

<svg width="54" height="48" viewBox="0 0 54 48" fill="none" xmlns="http://www.w3.org/2000/svg">
<mask id="mask0_106_2228" style="mask-type:alpha" maskUnits="userSpaceOnUse" x="8" y="0" width="39" height="48">
<path d="M9.48551 44.1366L8.00172 4.60036C7.95272 3.29463 8.9539 2.18805 10.258 2.10654L43.8863 0.00477149C45.2137 -0.0781921 46.3571 0.930637 46.44 2.25806C46.4431 2.30807 46.4447 2.35817 46.4447 2.40827V45.4899C46.4447 46.82 45.3665 47.8981 44.0365 47.8981C44.0005 47.8981 43.9645 47.8973 43.9285 47.8957L11.784 46.452C10.5321 46.3958 9.53251 45.3888 9.48551 44.1366Z" fill="white"/>
</mask>
<g mask="url(#mask0_106_2228)">
<path d="M9.48551 44.1366L8.00172 4.60036C7.95272 3.29463 8.9539 2.18805 10.258 2.10654L43.8863 0.00477149C45.2137 -0.0781921 46.3571 0.930637 46.44 2.25806C46.4431 2.30807 46.4447 2.35817 46.4447 2.40827V45.4899C46.4447 46.82 45.3665 47.8981 44.0365 47.8981C44.0005 47.8981 43.9645 47.8973 43.9285 47.8957L11.784 46.452C10.5321 46.3958 9.53251 45.3888 9.48551 44.1366Z" fill="#FF4785"/>
<path d="M36.3883 5.88744L36.618 0.362857L41.2362 0L41.4352 5.69732C41.4421 5.8956 41.287 6.06195 41.0887 6.06887C41.0038 6.07184 40.9206 6.04462 40.8538 5.99205L39.0729 4.5891L36.9644 6.18858C36.8063 6.30848 36.5809 6.27754 36.461 6.11947C36.4106 6.05294 36.3849 5.97089 36.3883 5.88744ZM30.4821 18.0535C30.4821 18.9904 36.7931 18.5413 37.6403 17.8832C37.6403 11.503 34.2168 8.15024 27.9479 8.15024C21.6789 8.15024 18.1664 11.5551 18.1664 16.6625C18.1664 25.5577 30.1709 25.728 30.1709 30.5799C30.1709 31.9419 29.504 32.7506 28.0368 32.7506C26.1249 32.7506 25.3691 31.7742 25.458 28.4544C25.458 27.7342 18.1664 27.5097 17.9441 28.4544C17.3781 36.4994 22.3902 38.8199 28.1257 38.8199C33.6833 38.8199 38.0405 35.8575 38.0405 30.4948C38.0405 20.9611 25.8582 21.2165 25.8582 16.4922C25.8582 14.577 27.2809 14.3216 28.1257 14.3216C29.0149 14.3216 30.6155 14.4783 30.4821 18.0535Z" fill="white"/>
</g>
</svg>

<svg fill="none" height="48" width="54" xmlns="http://www.w3.org/2000/svg"><mask id="a" height="48" maskUnits="userSpaceOnUse" width="39" x="8" y="0"><path d="M9.486 44.137 8.002 4.6a2.408 2.408 0 0 1 2.256-2.493L43.886.005a2.408 2.408 0 0 1 2.559 2.403V45.49a2.408 2.408 0 0 1-2.516 2.406l-32.145-1.444a2.408 2.408 0 0 1-2.298-2.315z" fill="#fff"/></mask><g mask="url(#a)"><path d="M9.486 44.137 8.002 4.6a2.408 2.408 0 0 1 2.256-2.493L43.886.005a2.408 2.408 0 0 1 2.559 2.403V45.49a2.408 2.408 0 0 1-2.516 2.406l-32.145-1.444a2.408 2.408 0 0 1-2.298-2.315z" fill="#ff4785"/><path d="m36.388 5.887.23-5.524L41.236 0l.2 5.697a.36.36 0 0 1-.582.295L39.073 4.59l-2.109 1.6a.36.36 0 0 1-.576-.302zm-5.906 12.166c0 .937 6.311.488 7.158-.17 0-6.38-3.423-9.733-9.692-9.733-6.27 0-9.782 3.405-9.782 8.512 0 8.896 12.005 9.066 12.005 13.918 0 1.362-.667 2.17-2.134 2.17-1.912 0-2.668-.976-2.579-4.296 0-.72-7.292-.944-7.514 0C17.378 36.5 22.39 38.82 28.126 38.82c5.557 0 9.915-2.962 9.915-8.325 0-9.534-12.183-9.278-12.183-14.003 0-1.915 1.423-2.17 2.268-2.17.889 0 2.49.156 2.356 3.732z" fill="#fff"/></g></svg>
